build/images/speech-woman2.svg

<svg width="380" height="323" viewBox="0 0 380 323" fill="none" xmlns="http://www.w3.org/2000/svg">
<path d="M128.732 322.956C132.445 318.873 135.508 313.956 139.128 309.687C143.119 305.048 153.979 292.243 155.65 290.573C138.942 285.469 103.3 277.582 101.815 277.768C114.902 257.354 148.874 215.692 150.545 213.836C141.634 220.053 132.538 225.713 121.307 226.362C109.704 227.012 96.3384 226.548 86.314 220.053C80.2808 216.156 76.1967 209.753 74.2476 202.794C72.0199 194.814 72.484 185.721 74.4332 178.576C72.6696 178.854 70.9989 179.504 69.3281 180.06C50.7644 186.37 17.8137 183.401 6.39703 165.4C0.920715 156.677 -0.564392 145.914 0.178162 135.707C1.10635 123.088 5.2832 110.468 13.8225 101.189C24.311 89.6835 38.6051 86.1575 53.1777 88.9412C60.2319 90.3331 67.4718 95.9004 67.4718 95.9004C65.8938 94.323 62.1811 81.1469 70.0707 74.8372C77.4962 68.9915 86.5924 71.5896 91.1406 75.9507C86.6852 70.8473 83.4366 58.1351 84.1791 51.6399C84.7361 46.4437 86.8709 41.2475 90.6765 37.6287C94.1107 34.381 98.6589 32.5252 103.3 31.5973C108.312 30.5767 113.603 30.3911 118.429 31.7829C124.741 33.6387 129.103 38.0926 131.61 44.1239C132.074 45.2374 133.187 47.0004 133.373 48.2067C132.723 41.8042 135.415 35.6801 138.571 30.2055C143.49 21.7617 151.101 14.2457 159.734 9.69905C173.935 2.36868 183.124 0.698472 197.14 0.048946C211.712 -0.693369 229.441 7.19373 235.102 11.0909C239.094 13.7818 242.714 16.9366 245.684 20.741C247.54 23.0607 249.025 25.6588 250.232 28.3497C250.789 29.7416 252.831 35.8657 253.016 37.7215C251.995 32.4325 261.649 31.1334 265.083 30.6695C271.302 29.8344 278.634 29.3704 281.697 36.144C284.018 41.433 282.811 47.4643 282.811 53.0317C285.039 50.0624 290.422 47.2788 292.836 45.9797C297.941 43.2888 303.788 42.2681 309.45 41.433C319.103 40.0412 329.128 39.2061 338.688 41.3402C352.147 44.1239 362.357 53.8668 368.297 65.9294C371.268 72.0535 373.31 78.6416 374.331 85.3224C376.373 98.2202 372.938 123.923 355.674 125.779C374.145 136.357 383.891 157.605 378.507 178.669C375.816 188.968 368.205 196.577 359.48 202.237C347.228 210.124 332.469 218.29 317.526 213.65C312.513 212.073 306.573 210.681 302.767 206.969L301.097 205.949C295.342 218.754 281.976 229.332 269.631 235.27C248.468 245.477 223.779 249.838 202.337 237.219C194.633 232.672 187.301 224.971 185.63 215.784H186.28C178.761 223.115 172.079 232.023 164.839 239.817C157.228 248.075 149.524 256.426 141.912 264.684C151.101 268.025 161.126 270.252 170.129 271.736C180.618 273.407 191.106 275.355 201.502 277.397C182.196 290.109 162.611 302.357 142.841 314.42C139.499 316.461 133.373 321.008 128.732 322.956Z" fill="#F4F4F2"/>
</svg>

<svg width="380" height="323" fill="none" xmlns="http://www.w3.org/2000/svg"><path d="M128.732 322.956c3.713-4.083 6.776-9 10.396-13.269 3.991-4.639 14.851-17.444 16.522-19.114-16.708-5.104-52.35-12.991-53.835-12.805 13.087-20.414 47.059-62.076 48.73-63.932-8.911 6.217-18.007 11.877-29.238 12.526-11.603.65-24.969.186-34.993-6.309-6.033-3.897-10.117-10.3-12.066-17.259-2.228-7.98-1.764-17.073.185-24.218-1.763.278-3.434.928-5.105 1.484-18.564 6.31-51.514 3.341-62.931-14.66-5.476-8.723-6.961-19.486-6.219-29.693.928-12.619 5.105-25.239 13.644-34.518 10.489-11.505 24.783-15.031 39.356-12.248 7.054 1.392 14.294 6.96 14.294 6.96-1.578-1.578-5.29-14.754 2.599-21.064 7.425-5.846 16.521-3.247 21.07 1.114-4.456-5.104-7.704-17.816-6.962-24.311.557-5.196 2.692-10.392 6.498-14.011 3.434-3.248 7.982-5.104 12.623-6.032 5.012-1.02 10.303-1.206 15.129.186 6.312 1.856 10.674 6.31 13.181 12.34.464 1.114 1.577 2.877 1.763 4.084-.65-6.403 2.042-12.527 5.198-18.002 4.919-8.443 12.53-15.96 21.163-20.506 14.201-7.33 23.39-9 37.406-9.65 14.572-.742 32.301 7.145 37.962 11.042 3.992 2.69 7.612 5.846 10.582 9.65 1.856 2.32 3.341 4.918 4.548 7.609.557 1.392 2.599 7.516 2.784 9.371-1.021-5.288 8.633-6.588 12.067-7.051 6.219-.836 13.551-1.3 16.614 5.474 2.321 5.289 1.114 11.32 1.114 16.888 2.228-2.97 7.611-5.753 10.025-7.052 5.105-2.691 10.952-3.712 16.614-4.547 9.653-1.392 19.678-2.227 29.238-.093 13.459 2.784 23.669 12.527 29.609 24.59a68.202 68.202 0 016.034 19.392c2.042 12.898-1.393 38.601-18.657 40.457 18.471 10.578 28.217 31.826 22.833 52.89-2.691 10.299-10.302 17.908-19.027 23.568-12.252 7.887-27.011 16.053-41.954 11.413-5.013-1.577-10.953-2.969-14.759-6.681l-1.67-1.02c-5.755 12.805-19.121 23.383-31.466 29.321-21.163 10.207-45.852 14.568-67.294 1.949-7.704-4.547-15.036-12.248-16.707-21.435h.65c-7.519 7.331-14.201 16.239-21.441 24.033-7.611 8.258-15.315 16.609-22.927 24.867 9.189 3.341 19.214 5.568 28.217 7.052 10.489 1.671 20.977 3.619 31.373 5.661-19.306 12.712-38.891 24.96-58.661 37.023-3.342 2.041-9.468 6.588-14.109 8.536z" fill="#F4F4F2"/></svg>
